X:1
T:James Gibb editions
T:Tantum ergo (A flat) - Bruckner
T:#
%%score [ 1 2 3 4 ]
L:1/8
Q:1/4=120
M:2/2
K:Ab
V:1 treble nm="Soprano"
V:2 treble nm="Alto"
V:3 treble-8 nm="Tenor"
V:4 bass nm="Bass"
V:1
!p!"^Tantum ergo (A flat)""^Anton Bruckner\n(1824-1896)" c4 A4 | G4 A4 | d4 c4 | (c2 B2) A4 | %4
w: Tan- tum|er- go|Sa- cra-|men\- * tum|
w: Ge- ni-|to- ri,|Ge- ni-|to\- * que|
 A4"^cresc." f4 | (e4 d2) c2 |"^dim." B4 A4 | G4 z4 |!p! c4 A4 |[M:2/2] G4 A4 | d4 c4 | %11
w: ve- ne-|re\- * mur|cer- nu-|i:|Et an-|ti- quum|do- cu-|
w: laus et|ju\- * bi-|la ti-|o,|Sa- lus,|ho- nor,|vir- tus|
 (c2 B2) A4 |!f! f4 (e2 =d2) | e4 E4 |!p! E4 =D4 | E4 z4 |!mf! E4 _G4 | (_G4 F2) F2 |!f! F4 d4 | %19
w: men\- * tum|no- vo *|ce- dat|ri- tu-|i:|Prae- stet|fi\- * des|sup- ple-|
w: quo\- * que|sit et *|be- ne-|di- cti-|o:|Pro- ce-|den\- * ti|ab- u-|
 c4 G4 |!p! F4 G4 | A4 (d2 c2) | A6 G2 | A8 ||!<(! (A8- | A4!>(! B4)!<)!!>)! | !fermata!c8 |] %27
w: men- tum|sen- su-|um de\- *|fe- ctu-|i.||||
w: tro- que|com- par|sit lau\- *|da- ti-|o.|A\-||men.|
V:2
!p! E4 E4 | E4 E4 | E4 E4 | G4 F4 | F4"^cresc." G4 | A6 G2 |"^dim." F4 F4 | E4 z4 |!p! E4 E4 | %9
w: Tan- tum|er- go|Sa- cra-|men- tum|ve- ne-|re- mur|cer- nu-|i:|Et an-|
w: Ge- ni-|to- ri,|Ge- ni-|to- que|laus et|ju- bi-|­~la ti-|o,|Sa- lus,|
[M:2/2] E4 E4 | =E4 F4 | =E4 F4 |!f! A4 A4 | G4 C4 |!p! B,4 B,4 | B,4 z4 | %16
w: ti- quum|do- cu-|men- tum|no- vo|ce- dat|ri- tu-|i:|
w: ho- nor,|vir- tus|quo- que|sit et|be- ne-|di- cti-|o:|
!mf! E4 (E2 !courtesy!_D2) | (C4 F2) E2 |!f! D4 F4 | =E4 E4 |!p! F4 !courtesy!_E4 | E4 E4 | %22
w: Prae- stet *|fi\- * des|sup- ple-|men- tum|sen- su-|um de-|
w: Pro- ce\- *|den\- * ti|ab- u-|tro- que|com- par|sit lau-|
 (C2 D2 E2) E2 | E8 ||!<(! (F8- | F4!>(! _F4)!<)!!>)! | !fermata!E8 |] %27
w: fe\- * * ctu-|i.||||
w: da\- * * ti-|o.|A\-||men.|
V:3
!p! A4 A4 | B4 A4 | G4 A4 | d4 c4 | d4"^cresc." d4 | (c4 f2) e2 |"^dim." d4 c4 | B4 z4 |!p! A4 A4 | %9
w: Tan- tum|er- go|Sa- cra-|men- tum|ve- ne-|re\- * mur|cer- nu-|i:|Et an-|
w: Ge- ni-|to- ri,|Ge- ni-|to- que|laus et|ju\- * bi-|la ti-|o,|Sa- lus,|
[M:2/2][K:treble-8] B4 A4 | G4 A4 | (A2 G2) F4 |!f! =d4 f4 | e4 _G4 |!p! F4 (!courtesy!=G2 A2) | %15
w: ti- quum|do- cu-|men\- * tum|no- vo|ce- dat|ri- tu\- *|
w: ho- nor,|vir- tus|quo\- * que|sit et|be- ne-|di- cti\- *|
 G4 z4 |!mf! (e2 !courtesy!_d2) (c2 B2) | =A6 A2 |!f! B4 B4 | G4 c4 |!p! A4 d4 | c4 (B2 A2) | %22
w: i:|Prae\- * stet *|fi- des|sup- ple-|men- tum|sen- su-|um de\- *|
w: o:|Pro\- * ce\- *|den- ti|ab- u-|tro- que|com- par|sit lau\- *|
 (A4 B2) B2 | c8 ||!<(! (A8- | A4!>(! G4)!<)!!>)! | !fermata!A8 |] %27
w: fe\- * ctu-|i.||||
w: da\- * ti-|o.|A\-||men.|
V:4
!p! A,,4 C,4 | (E,2 D,2) C,4 | B,,4 A,,4 | E,4 F,4 | D,4"^cresc." B,,4 | C,6 C,2 | %6
w: Tan- tum|er\- * go|Sa- cra-|men- tum|ve- ne-|re- mur|
w: Ge- ni-|to\- * ri,|Ge- ni-|to- que|laus et|ju- bi-|
"^dim." D,4 =D,4 | E,4 z4 |!p! A,,4 C,4 |[M:2/2] (E,2 D,2) C,4 | B,,4 A,,4 | C,4 F,4 | %12
w: cer- nu-|i:|Et an-|ti\- * quum|do- cu-|men- tum|
w: la ti-|o,|Sa- lus,|ho\- * nor,|vir- tus|quo- que|
!f! B,,4 B,,4 | C,4 =A,,4 |!p! B,,4 B,,4 | E,4 z4 | z8 |!mf! F,2 E,2 D,2 C,2 | %18
w: no- vo|ce- dat|ri- tu-|i:||Prae- stet fi- des|
w: sit et|be- ne-|di- cti-|o:||Pro- ce- den- ti|
!f! (B,,2 A,,2) (G,,2 A,,B,,) | C,4 C,4 |!p! D,4 B,,4 | C,4 (G,,2 A,,2) | (F,4 E,2) E,2 | A,,8 || %24
w: sup\- * ple\- * *|men- tum|sen- su-|um de\- *|fe\- * ctu-|i.|
w: ab\- * u\- * *|tro- que|com- par|sit lau\- *|da\- * ti-|o.|
!<(! D,8-!<)! |!>(! D,8!>)! | !fermata!A,,8 |] %27
w: |||
w: A\-||men.|

